!!!COM: Kazimierz Boczkowski
!!!CDT: [?]
!!!OTL: Radości wielkie
!!!TXO: Polish
!!!ODT: 
!!!GTL: Hymnbook E
!!!ARL: Opactwo św. Wojciecha, Staniątki 
!!!voices:	3
**kern	**kern	**text	**text	**kern	**text	**text
*staff3	*staff2	*staff2	*staff2	*staff1	*staff1	*staff1
*I"Basso	*I"Canto II	*	*	*I"Canto I	*	*
=1-	=1-	=1-	=1-	=1-	=1-	=1-
*clefF4	*clefG2	*	*	*clefG2	*	*
*k[]	*k[]	*	*	*k[]	*	*
*M3/2	*M3/2	*	*	*M3/2	*	*
2C	2e	Ra-	W~nie-	2g	Ra-	W~nie-
2E	4a	-do-	-bie	4cc	-do-	-bie
.	4g	.	.	4b	.	.
2C	4a	-ści	gdy	4cc	-ści	gdy
.	4f#	.	.	4dd	.	.
=2	=2	=2	=2	=2	=2	=2
2G	2g	wiel-	go-	2b	wiel-	go-
1G	1g	-kie	-dy	1g	-kie	-dy
=3	=3	=3	=3	=3	=3	=3
4F	4a	B&oacute;g	Ag-	4cc	B&oacute;g	Ag-
4D	4b	dziś	-niesz-	4dd	dziś	-niesz-
2C	4cc	od-	-ce	4ee	od-	-ce
.	4b	.	.	4dd	.	.
2F	4cc	-pra-	spra-	4ee	-pra-	spra-
.	4dd	.	.	4ff	.	.
=4	=4	=4	=4	=4	=4	=4
2G	2b	-wu-	-wu-	2dd	-wu-	-wu-
1G	1b	-je	-je	2.dd	-je	-je
.	.	.	.	4cc	.	.
=5:|!	=5:|!	=5:|!	=5:|!	=5:|!	=5:|!	=5:|!
2G	2b	Czys-	.	2dd	Czys-	.
2.BB	2.ee	-tość	.	2.gg	-tość	.
4BB	4dd	z~Mę-	.	4ff	z~Mę-	.
=6	=6	=6	=6	=6	=6	=6
2C	4cc	-czeń-	.	4ee	-czeń-	.
.	4b	.	.	4dd	.	.
1F	1a	-stwem	.	1cc	-stwem	.
=7	=7	=7	=7	=7	=7	=7
4G	4b	kie-	.	4dd	kie-	.
4E	4cc	-dy	.	4ee	-dy	.
2F	4a	się	.	4cc	się	.
.	4b	.	.	4dd	.	.
2C	4cc	poj-	.	4ee	poj-	.
.	4dd	.	.	4ff	.	.
=8	=8	=8	=8	=8	=8	=8
2G	2b	-mu-	.	2dd	-mu-	.
1G	1b	-ją	.	1dd	-ją	.
=9	=9	=9	=9	=9	=9	=9
2E	4cc	go-	.	4ee	go-	.
.	4b	.	.	4dd	.	.
2F	4a	-dy	.	4cc	-dy	.
.	4b	.	.	4dd	.	.
2C	2cc	spra-	.	4ee	spra-	.
.	.	.	.	4ff	.	.
=10	=10	=10	=10	=10	=10	=10
4G	2b	-wu-	.	4dd	-wu-	.
4GG	.	.	.	4ee	.	.
1C	1cc	-ją.	.	1cc	-ją.	.
==	==	==	==	==	==	==
*-	*-	*-	*-	*-	*-	*-
!!!GTL: Hymnbook E
!!!EFL: 98/117
!!!YEM: Creative Commons CC/BY/NC/SA 4.0
!!!ENC: Marcin Konik
!!!END: 
!!!EED: Marcin Konik
!!!EEV: 
!!!ONB: Translated from MusicXML and edited by Marcin Konik
!!!CharacterEncoding: utf-8
!!!RDF**kern: l=long note in original notation
!!!RDF**kern: i=editorial accidental
!!muse2ps: z14jc180F
